!!!OTL: 50a. Die Mordeltern.
!!!ODT: 1880
!!!ARE: Europa, Mitteleuropa, Deutschland, Westfalen, Wittgenstein
!!!SCT: E0050B
!!!TXL: @@DE
!!!YEM: Copyright 1995, estate of Helmut Schaffrath.
**kern	**text
*ICvox	*
*M3/4	*
*k[f#]	*
*G:	*
!LO:TX:a:t=Mäßig.	!
!LO:TX:a:t=Aus Weſtfalen (Kr. Wittgenſtein). 1880.	!
{8d	Es
=1	=1
8.g	warn
16g	ein-
4.g	-mal
8a	ʒwei
=2	=2
8.b/	Bau-
16b/	-ern-
4.b/}	-ſöhn,
{8b/	die
=3	=3
8a	hat-
8b/	-ten
4cc	Luſt
4f#	in
=4	=4
8.a	Krieg
16g	ʒu
4g	ʒiehn,
8r}	.
{8b	wol
=5	=5
4.dd	ins
8b	Sol-
8cc	-da-
8b	-ten-
=6	=6
8bq	.
4dd	-le-
4a	-ben,
8r}	.
{8ee	wol
=7	=7
8ee	ins
8ee	Sol-
8ddL	-da-
8ccJ	.
4b	-ten-
=8	=8
4a	-le-
4g	-ben.
8r}	.
==	==
!!!AGN: erzaehlendes Volks - Lied, Sage, Mord, Ballade ?
!!!ONB: ESAC (Essen Associative Code) Database: ERK1
!!!AMT: simple triple
!!!AIN: vox
!!!EED: Helmut Schaffrath
!!!EEV: 1.0
!!!GTL: Sagen von Mordthaten, unschuldig Gesangeg und Hinrichtungen
!!!URL-scan: https://rosdok.uni-rostock.de/mcrviewer/recordIdentifier/rosdok_ppn745146120/iview2/phys_0237.iview2?x=-250.1417780126858&y=832.1432880412322&scale=0.5392104374602399&rotation=0&layout=singlePageLayout&logicalDiv=log_0009
!!!ENC: Anna Maria Matuszewska
!!!EEV: 2024/11/25
*-	*-
